Simply black circles/symbolic/places/folder-visiting-symbolic.svg

<?xml version="1.0" encoding="UTF-8" standalone="no"?>
<!-- Created with Inkscape (http://www.inkscape.org/) -->

<svg
   xmlns:dc="http://purl.org/dc/elements/1.1/"
   xmlns:cc="http://creativecommons.org/ns#"
   xmlns:rdf="http://www.w3.org/1999/02/22-rdf-syntax-ns#"
   xmlns:svg="http://www.w3.org/2000/svg"
   xmlns="http://www.w3.org/2000/svg"
   xmlns:xlink="http://www.w3.org/1999/xlink"
   xmlns:sodipodi="http://sodipodi.sourceforge.net/DTD/sodipodi-0.dtd"
   xmlns:inkscape="http://www.inkscape.org/namespaces/inkscape"
   id="svg3272"
   width="24"
   height="24"
   version="1.0"
   sodipodi:docname="folder-visiting-symbolic.svg"
   inkscape:version="0.92.3 (2405546, 2018-03-11)">
  <metadata
     id="metadata50">
    <rdf:RDF>
      <cc:Work
         rdf:about="">
        <dc:format>image/svg+xml</dc:format>
        <dc:type
           rdf:resource="http://purl.org/dc/dcmitype/StillImage" />
        <dc:title></dc:title>
      </cc:Work>
    </rdf:RDF>
  </metadata>
  <sodipodi:namedview
     pagecolor="#ffffff"
     bordercolor="#666666"
     borderopacity="1"
     objecttolerance="10"
     gridtolerance="10"
     guidetolerance="10"
     inkscape:pageopacity="0"
     inkscape:pageshadow="2"
     inkscape:window-width="1366"
     inkscape:window-height="719"
     id="namedview48"
     showgrid="false"
     inkscape:zoom="22.166667"
     inkscape:cx="12"
     inkscape:cy="12"
     inkscape:window-x="0"
     inkscape:window-y="25"
     inkscape:window-maximized="1"
     inkscape:current-layer="svg3272"
     showguides="true"
     inkscape:guide-bbox="true" />
  <defs
     id="defs3274">
    <linearGradient
       id="linearGradient3404"
       x1="18.031"
       x2="20.055"
       y1="16.408"
       y2="24.628"
       gradientUnits="userSpaceOnUse">
      <stop
         id="stop2687"
         style="stop-color:#fff;stop-opacity:.27451"
         offset="0" />
      <stop
         id="stop2689"
         style="stop-color:#fff;stop-opacity:.078431"
         offset="1" />
    </linearGradient>
    <radialGradient
       id="radialGradient3402"
       cx="4.02"
       cy="5.5927"
       r="10.273"
       gradientTransform="matrix(-.016802 1.3943 -1.7966 -.021651 -5.3658 -19.339)"
       gradientUnits="userSpaceOnUse">
      <stop
         id="stop3754"
         style="stop-color:#fff"
         offset="0" />
      <stop
         id="stop3760"
         style="stop-color:#fff"
         offset=".84754" />
      <stop
         id="stop3756"
         style="stop-color:#fff;stop-opacity:0"
         offset="1" />
    </radialGradient>
    <linearGradient
       id="linearGradient3400"
       x1="9.7046"
       x2="9.7046"
       y1="20.882"
       y2="4.303"
       gradientTransform="matrix(.99458 0 0 .99458 -19.857 -19.778)"
       gradientUnits="userSpaceOnUse">
      <stop
         id="stop3624"
         style="stop-color:#bb2b12"
         offset="0" />
      <stop
         id="stop3626"
         style="stop-color:#cd7233"
         offset="1" />
    </linearGradient>
    <radialGradient
       id="radialGradient3398"
       cx="7.8186"
       cy="8.5609"
       r="11.268"
       gradientTransform="matrix(1.69 0 0 1.0436 -24.967 -20.534)"
       gradientUnits="userSpaceOnUse">
      <stop
         id="stop3618"
         style="stop-color:#edb763"
         offset="0" />
      <stop
         id="stop3270"
         style="stop-color:#de7f32"
         offset=".5" />
      <stop
         id="stop3620"
         style="stop-color:#d24413"
         offset="1" />
    </radialGradient>
    <linearGradient
       id="linearGradient3396"
       x1="9.8764"
       x2="9.8764"
       y1="2.6015"
       y2="23.062"
       gradientTransform="translate(-19.518 -21.496)"
       gradientUnits="userSpaceOnUse">
      <stop
         id="stop5159"
         style="stop-color:#c1c1c1"
         offset="0" />
      <stop
         id="stop5161"
         style="stop-color:#909090"
         offset="1" />
    </linearGradient>
    <linearGradient
       id="linearGradient3394"
       x1="-28.531"
       x2="-28.531"
       y1="17.956"
       y2="37.503"
       gradientTransform="translate(14.86 -35.997)"
       gradientUnits="userSpaceOnUse">
      <stop
         id="stop11113"
         style="stop-color:#fff"
         offset="0" />
      <stop
         id="stop11115"
         style="stop-color:#cdcdcd"
         offset=".91014" />
      <stop
         id="stop11117"
         style="stop-color:#a1a1a1"
         offset="1" />
    </linearGradient>
    <radialGradient
       id="radialGradient3392"
       cx="605.71"
       cy="486.65"
       r="117.14"
       gradientTransform="matrix(-2.7744 0 0 1.9697 112.76 -872.89)"
       gradientUnits="userSpaceOnUse"
       xlink:href="#linearGradient5060" />
    <linearGradient
       id="linearGradient5060">
      <stop
         id="stop5062"
         offset="0" />
      <stop
         id="stop5064"
         style="stop-opacity:0"
         offset="1" />
    </linearGradient>
    <radialGradient
       id="radialGradient3390"
       cx="605.71"
       cy="486.65"
       r="117.14"
       gradientTransform="matrix(2.7744 0 0 1.9697 -1891.6 -872.89)"
       gradientUnits="userSpaceOnUse"
       xlink:href="#linearGradient5060" />
    <linearGradient
       id="linearGradient3388"
       x1="302.86"
       x2="302.86"
       y1="366.65"
       y2="609.51"
       gradientTransform="matrix(2.7744 0 0 1.9697 -1892.2 -872.89)"
       gradientUnits="userSpaceOnUse">
      <stop
         id="stop5050"
         style="stop-opacity:0"
         offset="0" />
      <stop
         id="stop5056"
         offset=".5" />
      <stop
         id="stop5052"
         style="stop-opacity:0"
         offset="1" />
    </linearGradient>
  </defs>
  <path
     style="opacity:1;fill:#808080;fill-opacity:1;stroke:none;stroke-width:1.18556678"
     d="M 4.3652344 5.0234375 C 3.6060484 5.0234375 2.9941406 5.6333698 2.9941406 6.3925781 L 2.9941406 8.6777344 C 2.9941406 8.7132524 3.0032714 8.7465844 3.0058594 8.78125 L 3.0058594 15.464844 L 2.9921875 15.464844 L 2.9921875 16.648438 L 2.9921875 17.605469 C 2.9921875 18.070551 3.2588671 18.418296 3.6113281 18.666016 L 13.144531 9.1328125 L 10.367188 9.1328125 L 5.6289062 9.1328125 L 5.6289062 11.15625 C 5.6289062 11.543327 5.3744386 11.855469 5.0566406 11.855469 C 4.7388456 11.855469 4.4824219 11.543327 4.4824219 11.15625 L 4.4824219 8.7890625 C 4.4824219 8.7543955 4.4940069 8.7228421 4.4980469 8.6894531 C 4.4937469 8.6624461 4.4824219 8.6394031 4.4824219 8.6113281 C 4.4824219 8.3450874 4.6843083 8.1361604 4.9414062 8.1035156 C 4.9633163 8.1013956 4.9812363 8.0898438 5.0039062 8.0898438 L 5.0566406 8.0898438 L 20.982422 8.0898438 L 21.005859 8.0917969 L 21.005859 6.5527344 L 11.089844 6.5527344 L 9.5605469 5.0234375 L 4.3652344 5.0234375 z M 21.007812 9.1289062 L 20.988281 9.1328125 L 16.335938 9.1328125 L 6.4921875 18.976562 L 11.212891 18.976562 L 21.007812 9.1816406 L 21.007812 9.1289062 z M 21.007812 12.306641 L 14.337891 18.976562 L 19.634766 18.976562 C 20.393951 18.976562 21.003906 18.364655 21.003906 17.605469 L 21.003906 15.771484 L 21.007812 15.771484 L 21.007812 12.306641 z "
     id="path890" />
</svg>

<svg xmlns="http://www.w3.org/2000/svg" width="24" height="24" version="1"><defs><linearGradient id="a"><stop offset="0"/><stop offset="1" stop-opacity="0"/></linearGradient></defs><path d="M4.365 5.023c-.759 0-1.37.61-1.37 1.37v2.285c0 .035.008.069.01.103v6.684h-.013v2.14c0 .466.267.813.62 1.061l9.533-9.533H5.629v2.023c0 .387-.255.7-.572.7-.318 0-.575-.313-.575-.7V8.79c0-.035.012-.066.016-.1-.004-.027-.016-.05-.016-.078 0-.266.202-.475.46-.507.021-.003.04-.014.062-.014H20.982l.024.002v-1.54H11.09L9.56 5.024H4.366zM21.008 9.13l-.02.004h-4.652l-9.844 9.844h4.72l9.796-9.795v-.053zm0 3.178l-6.67 6.67h5.297c.759 0 1.369-.612 1.369-1.372v-1.834h.004v-3.464z" fill="gray"/></svg>
